X:18
T:Anglais ur Trästadsamlingen
T:(SmM X-18)
R:Anglais
O:Trästad, Blackstad, Småland
N:Trästadsamlingen [III], ca 1810.
B:Småländsk Musiktradition
M:2/4
L:1/16
K:C
G2|:c2A2 ^FGAG|c2G2 c2A2|d2f2 B2(Bd)|1(cBcd) e2G2:|2(cBcd) c4]|
[K:A,m]
|:(A^GAB) (cB)(cA)|(^GB) e3 dcB|(A^GAB) (cBcA)|(^GBe)(G A4):|

